storage/app/icons/phosphoricons/duotone/corners-out-duotone.svg

<svg xmlns="http://www.w3.org/2000/svg" fill="currentColor" viewBox="0 0 256 256"><path d="M208 48v160H48V48Z" opacity=".2"/><path d="M216 48v40a8 8 0 0 1-16 0V56h-32a8 8 0 0 1 0-16h40a8 8 0 0 1 8 8M88 200H56v-32a8 8 0 0 0-16 0v40a8 8 0 0 0 8 8h40a8 8 0 0 0 0-16m120-40a8 8 0 0 0-8 8v32h-32a8 8 0 0 0 0 16h40a8 8 0 0 0 8-8v-40a8 8 0 0 0-8-8M88 40H48a8 8 0 0 0-8 8v40a8 8 0 0 0 16 0V56h32a8 8 0 0 0 0-16"/></svg>

<svg xmlns="http://www.w3.org/2000/svg" viewBox="0 0 256 256" fill="currentColor"><path d="M208,48V208H48V48Z" opacity="0.2"/><path d="M216,48V88a8,8,0,0,1-16,0V56H168a8,8,0,0,1,0-16h40A8,8,0,0,1,216,48ZM88,200H56V168a8,8,0,0,0-16,0v40a8,8,0,0,0,8,8H88a8,8,0,0,0,0-16Zm120-40a8,8,0,0,0-8,8v32H168a8,8,0,0,0,0,16h40a8,8,0,0,0,8-8V168A8,8,0,0,0,208,160ZM88,40H48a8,8,0,0,0-8,8V88a8,8,0,0,0,16,0V56H88a8,8,0,0,0,0-16Z"/></svg>
